X: 7095
T: Christmas
R: hornpipe
M: 4/4
K: Gmajor
|:Bdgf g2 dc|Bdgf g2 dB|A^ca^g aba=g|ef d2 d2 AB|
cBcd efgd|B^ABc dBgB|ceAc FADF|G2 B2 G2 dc:|
|:Bdgd edcB|cAag fedc|BdgB cBAG|FAGE D2 DE|
FEFG A^GAB|cBcd e2 (3edc)|dgBd GBDF|G2 B2 G2 dc:|

